X: 140
T: Mrs Clark's Strathspey
%R: strathspey, reel
B: Urbani & Liston "A Selection of Scotch, English Irish, and Foreign Airs", Edinburgh 1800, p.54 #3
F: http://www.vwml.org/browse/browse-collections-dance-tune-books/browse-urbani1800
Z: 2014 John Chambers <jc:trillian.mit.edu>
N: The 2nd strain has initial repeat but no final repeat; not fixed.
M: C
L: 1/8
K: D
f |\
d/d/d dA FDDF | AcFd Eeef |\
gefd d/c/B/A/ dA | B/B/B de fdd :||: f |\
d/d/d ad bdad | ge fd ceef |
gefd d/c/B/A/ dA | B/B/B de fddf |\
d/d/d ad bdad | gefd cddf |\
gece dAFA | BGEg fdd |]

%%sep 1 1 500
%%sep 1 1 500
